_includes/icons/join/future.svg

<svg id="Layer_1" data-name="Layer 1" xmlns="http://www.w3.org/2000/svg" viewBox="0 0 53 53"><defs><style>.cls-1{fill:#609c70;}.cls-2{fill:none;stroke:#54565a;}</style></defs><path class="cls-1" d="M52.3281,4.86471a1.68649,1.68649,0,0,0-1.192-1.19018,35.421,35.421,0,0,0-8.0572-.67444c-10.0813,0-16.1268,5.39093-20.6402,12.5H12.2615a5.135,5.135,0,0,0-4.18815,2.5864l-4.82768,9.6496A2.7736,2.7736,0,0,0,3,28.78129a2.34457,2.34457,0,0,0,2.34432,2.3438H15.482l-2.1947,2.1942a3.18063,3.18063,0,0,0,0,4.419l4.9711,4.9713a3.18493,3.18493,0,0,0,4.4216,0l2.1948-2.1942v10.1409a2.34454,2.34454,0,0,0,2.3443,2.3438,2.789,2.789,0,0,0,1.0456-.2457l9.6414-4.8233a5.11914,5.11914,0,0,0,2.5887-4.1855V33.54669c7.0896-4.5227,12.5034-10.5866,12.5034-20.6147A34.65378,34.65378,0,0,0,52.3281,4.86471ZM40.5039,19.40629a3.90842,3.90842,0,1,1,2.7621-1.1444A3.90587,3.90587,0,0,1,40.5039,19.40629Z"/><path class="cls-2" d="M50.3281,2.86471a1.68649,1.68649,0,0,0-1.192-1.19018,35.421,35.421,0,0,0-8.0572-.67444c-10.0813,0-16.1268,5.39093-20.6402,12.5H10.2615a5.1351,5.1351,0,0,0-4.18815,2.5864l-4.82768,9.6496A2.7736,2.7736,0,0,0,1,26.78129a2.34457,2.34457,0,0,0,2.34432,2.3438H13.482l-2.1947,2.1942a3.18063,3.18063,0,0,0,0,4.419l4.9711,4.9713a3.18493,3.18493,0,0,0,4.4216,0l2.1948-2.1942v10.1409a2.34454,2.34454,0,0,0,2.3443,2.3438,2.78858,2.78858,0,0,0,1.0456-.2457l9.6414-4.8233a5.11914,5.11914,0,0,0,2.5887-4.1855V31.54669c7.0896-4.5227,12.5034-10.5866,12.5034-20.6147A34.65378,34.65378,0,0,0,50.3281,2.86471ZM38.5039,17.40629a3.90842,3.90842,0,1,1,2.7621-1.1444,3.90587,3.90587,0,0,1-2.7621,1.1444Z"/></svg>

<svg width="53" height="53" viewBox="0 0 53 53" fill="none" xmlns="http://www.w3.org/2000/svg">
<path d="M52.3281 4.86462C52.212 4.32446 51.6779 3.79041 51.1361 3.67444C47.9918 3 45.53 3 43.0789 3C32.9976 3 26.9521 8.39093 22.4387 15.5H12.2615C10.665 15.5015 8.78917 16.6597 8.07335 18.0864L3.24567 27.736C3.09647 28.0651 3.01302 28.4202 3 28.7812C3.00022 29.4029 3.2473 29.999 3.68692 30.4385C4.12653 30.878 4.72269 31.1249 5.34432 31.125H15.482L13.2873 33.3192C12.1774 34.4287 12.0181 36.4694 13.2873 37.7382L18.2584 42.7095C19.3479 43.802 21.3986 43.9943 22.68 42.7095L24.8748 40.5153V50.6562C24.875 51.2779 25.1221 51.874 25.5617 52.3135C26.0013 52.753 26.5975 52.9999 27.2191 53C27.5802 52.9866 27.9354 52.9032 28.2647 52.7543L37.9061 47.931C39.3347 47.2184 40.4948 45.3431 40.4948 43.7455V33.5466C47.5844 29.0239 52.9982 22.96 52.9982 12.9319C53.0074 10.4707 53.0074 8.00946 52.3281 4.86462ZM40.5039 19.4062C39.7314 19.4061 38.9763 19.1768 38.334 18.7475C37.6917 18.3181 37.1912 17.708 36.8957 16.9942C36.6002 16.2804 36.523 15.495 36.6738 14.7373C36.8246 13.9797 37.1967 13.2837 37.7431 12.7375C38.2894 12.1913 38.9854 11.8194 39.7432 11.6687C40.5009 11.5181 41.2862 11.5955 42 11.8912C42.7137 12.1869 43.3237 12.6875 43.7529 13.3299C44.1821 13.9723 44.4111 14.7275 44.4111 15.5C44.4105 16.536 43.9987 17.5293 43.266 18.2618C42.5334 18.9943 41.5399 19.4059 40.5039 19.4062Z" fill="#80b690"/>
<path d="M50.3281 2.86462C50.212 2.32446 49.6779 1.79041 49.1361 1.67444C45.9918 1 43.53 1 41.0789 1C30.9976 1 24.9521 6.39093 20.4387 13.5H10.2615C8.66505 13.5015 6.78917 14.6597 6.07335 16.0864L1.24567 25.736C1.09647 26.0651 1.01302 26.4202 1 26.7812C1.00022 27.4029 1.2473 27.999 1.68692 28.4385C2.12653 28.878 2.72269 29.1249 3.34432 29.125H13.482L11.2873 31.3192C10.1774 32.4287 10.0181 34.4694 11.2873 35.7382L16.2584 40.7095C17.3479 41.802 19.3986 41.9943 20.68 40.7095L22.8748 38.5153V48.6562C22.875 49.2779 23.1221 49.874 23.5617 50.3135C24.0013 50.753 24.5975 50.9999 25.2191 51C25.5803 50.9866 25.9354 50.9032 26.2647 50.7543L35.9061 45.931C37.3347 45.2184 38.4948 43.3431 38.4948 41.7455V31.5466C45.5844 27.0239 50.9982 20.96 50.9982 10.9319C51.0074 8.4707 51.0074 6.00946 50.3281 2.86462ZM38.5039 17.4062C37.7314 17.4061 36.9763 17.1768 36.334 16.7475C35.6917 16.3181 35.1912 15.708 34.8957 14.9942C34.6002 14.2804 34.523 13.495 34.6738 12.7373C34.8246 11.9797 35.1967 11.2837 35.7431 10.7375C36.2894 10.1913 36.9854 9.81939 37.7432 9.66874C38.5009 9.51809 39.2862 9.5955 40 9.89119C40.7137 10.1869 41.3237 10.6875 41.7529 11.3299C42.1821 11.9723 42.4111 12.7275 42.4111 13.5C42.4105 14.536 41.9987 15.5293 41.266 16.2618C40.5334 16.9943 39.5399 17.4059 38.5039 17.4062V17.4062Z" stroke="#1c1d20"/>
</svg>
